!!!!SEGMENT: pl-kozmzk--mzk-m-346--018_walczynski-franciszek--cantantibus-organis-thema-con-variazioni.krn
!!!cenid: 18xx:2813
!!!COM: Walczyński, Franciszek
!!!COM-rismid: pe30021989
!!!CDT: ~1852-1937
!!!CNT: Polish
!!!GTL: Cantantibus organis op. 10
!!!OTL: 18. Thema con variazioni
!!!PDT: 1898
!!!AGN: Secular
!!!SMS-siglum: PL-KOZmzk
!!!SMS-shelfmark: mzk/m/346
!!!SMS-shelfwork: 018 G
!!!SMS-variant:
!!!SMS-altvar:
!!!NIFC-rismid: 1001109089
!!!URL-scan: https://repozytorium.nifc.pl/islandora/object/pl-kozmzk%3A7453/datastream/PDF/view
!!!ONB-nifc: UWAGA: temat razem z wariacjami i kodą
!!!OMD:Maestoso.
**kern	**kern	**dynam
*part2	*part1	*part1
*staff2	*staff1	*
*I"[Organo]	*	*
*clefF4	*clefG2	*
*k[f#c#]	*k[f#c#]	*
*D:	*D:	*
*M4/4	*M4/4	*
*met(c)	*met(c)	*
=1	=1	=1
*^	*	*
!LO:TX:b:i:t=Ped.	!	!LO:TX:a:B:t=Thema con variazioni.	!
2D/	2DD\	1r	p
4D/	4DD\	.	.
4D/	4DD\	.	.
=2	=2	=2	=2
2E/	2EE\	1r	.
2D/	2DD\	.	.
=3	=3	=3	=3
!	!	!	!LO:DY:b=2:rj
4.F#/	4.FF#\	1r	f < [[
8G/	8GG\	.	.
4A/	4AA\	.	.
4F#/	4FF#\	.	.
=4	=4	=4	=4
2.d/	2.D\	1r	>]
4rc	4rBB	.	.
*v	*v	*	*
=5	=5	=5
*	*^	*
1r	2aa/ 2ff#/	2dd\	pp
.	4aa/ 4ff#/	4dd\	.
.	4aa/ 4ff#/	4dd\	.
=6	=6	=6	=6
1r	2bb/ 2gg/	(8g\L	.
.	.	8a\	.
.	.	8b\	.
.	.	8cc#\J)	.
.	2aa/ 2ff#/	2dd\	.
*clefG2	*	*	*
=7	=7	=7	=7
*^	*	*	*
(2.dd/	(4b\	(4ddd/	4ff#\	fp
.	4g\	4bb/	4gg\	.
.	4d\	4aa/	4ff#\	.
4b/	4e\	4gg/	(8ee\L	.
.	.	.	8dd\J)	.
=8	=8	=8	=8	=8
4a#X/	1f#\;)	1ff#/;)	(4cc#\	pp
8b/L	.	.	8dd\L	.
8g#X/J	.	.	8b\J	.
2a#;/)	.	.	2cc#;\)	.
*	*	*v	*v	*
*clefF4	*	*	*
=9	=9	=9	=9
!LO:TX:b:i:t=Ped.	!	!	!LO:DY:b=2:rj
2F#/	2FF#\	1r	fp
4F#/	4FF#\	.	.
4F#/	4FF#\	.	.
=10	=10	=10	=10
2G/	2GG\	1r	.
2F#/	2FF#\	.	.
!!LO:LB:g=original
=11	=11	=11	=11
!	!	!	!LO:DY:rj
4.B/	4.BB\	1r	f < [[
8c#/	8C#\	.	.
4d/	4D\	.	.
4B/	4BB\	.	.
=12	=12	=12	=12
2.g/	2.G\	1r	>]
4rg	4rE	.	.
*v	*v	*	*
=13	=13	=13
*	*^	*
1r	2dd/ 2b/	2g\	pp
.	4dd/ 4b/	4g\	.
.	4dd/ 4b/	4g\	.
=14	=14	=14	=14
1r	2ee/ 2ccn/	(8cn\L	.
.	.	8d\	.
.	.	8e\	.
.	.	8f#\J	.
.	2dd/ 2b/	2g\)	.
*clefG2	*	*	*
=15	=15	=15	=15
*^	*	*	*
(2.g/	(4e\	(4gg/	4b\	fp
.	4cn\	4ee/	4ccn\	.
.	4G\	4dd/	4b\	.
4e/	4A\	4cc/	(8a\L	.
.	.	.	8g\J)	.
=16	=16	=16	=16	=16
2d#X/	2B\	2.b/	2f#\	<
2e/)	2E\)	.	2g#X\	.
.	.	4b/)	.	[[
*v	*v	*	*	*
*	*v	*v	*
*clefF4	*	*
=17	=17	=17
*	*^	*
*	*	*^	*
!LO:TX:b:i:t=Ped.	!	!	!	!
4A\ 4AA\	(2cc#X/	[1a\	2e\	f
4Gn/ 4GGn/	.	.	.	.
4F#/ 4FF#/	2dd/	.	2d\	.
4Fn/ 4FFn/	.	.	.	.
*	*v	*v	*v	*
=18	=18	=18
2.E/ 2.EE/	4cc#/ 4a/] 4e/	>
.	4b/ 4g#X/ 4d/	.
.	4a/ 4e/ 4c#/	.
4E/ 4EE/	4g#X/ 4d/ 4B/)	]]
=19	=19	=19
*^	*^	*
!	!	!	!	!LO:HP:a
1A/	[1AA\	2a/	(2e\ 2c#\	p <
.	.	[2a/	4fn\ 4d\	.
.	.	.	4d\ 4B\	[[
=20	=20	=20	=20	=20
!	!	!	!	!LO:HP:a
2.A/	2.AA\]	2.a/]	2.e\ 2.c#\)	pp >
4r	4ryy	4r	4ryy	]]
*	*	*v	*v	*
=21	=21	=21	=21
!LO:TX:b:i:t=Ped.	!	!	!LO:DY:b=2:rj
2A/	2AA\	1r	p
4A/	4AA\	.	.
4A/	4AA\	.	.
!!LO:LB:g=original
=22	=22	=22	=22
2B/	2BB\	1r	.
2A/	2AA\	.	.
=23	=23	=23	=23
!	!	!	!LO:DY:rj
4.c#/	4.C#\	1r	f <
8d/	8D\	.	.
4e/	4E\	.	.
4c#/	4C#\	.	[[
=24	=24	=24	=24
2.a/	2.A\	1r	.
4rf	4rF	.	.
=25	=25	=25	=25
!	!	!	!LO:DY:b=2:rj
1rg	(>2AA\	1r	pp
.	4A\)	.	.
.	[4A\	.	.
=26	=26	=26	=26
*	*	*^	*
!	!	!	!	!LO:DY:rj
(2g/	1A\_	2ryy	(<2b-X\	fp
4fn/	.	[2a/	4a\	.
4e/	.	.	4g\	.
=27	=27	=27	=27	=27
2d/	1A\_	1a/_	2fn\	.
4c#/	.	.	4e\	.
4B/)	.	.	4d\)	.
=28	=28	=28	=28	=28
!	!	!	!	!LO:HP:a
(2c#/	1A\_	1a/_	(2e\	p <
4d/	.	.	4fn\	.
4B/	.	.	4d\	.
=29	=29	=29	=29	=29
4c#/	(1A\]	1a/_	4e\	.
4e/	.	.	4g\	[[
4d/	.	.	4fn\	.
4B/	.	.	4d\	.
=30	=30	=30	=30	=30
!	!	!	!	!LO:DY:rj
!	!	!	!LO:TX:i:b:t=rit.	!LO:HP:a
2c#/	2AA\)	1a/_	2e\	pp >
2d/	4FFn\	.	2fn\	.
.	4DD\	.	.	.
=31	=31	=31	=31	=31
2A/)	2AA\	2a/]	2e\ 2c#X\)	.
!	!	!	!	!LO:HP:b=2
2r	4AA\	2r	2ryy	] < [
.	4AA\	.	.	.
=32	=32	=32	=32	=32
!	!	!	!	!LO:HP:b=2
1r;	1AA\;	1r;g	1r	> ]
*v	*v	*	*	*
*	*v	*v	*
!!LO:LB:g=original
=|!33	=|!33	=|!33
*M2/2	*M2/2	*
*met(c|)	*met(c|)	*
!!!OMD:Andante.
*^	*^	*
!	!	!LO:TX:b:i:t=semplice	!	!
!	!	!LO:TX:a:B:t=Thema „Kto się w opiekę“	!	!LO:DY:rj
2d/	2D\	2a/	2f#\	p <
4d/	4D\	4a/	4f#\	.
4d/	4D\	4a/	4f#\	.
=34	=34	=34	=34	=34
2d/	(4GG\	2b/	2g\	[ >
.	4BB\)	.	.	.
2d/	2D\	2a/	2f#\	]]
=35	=35	=35	=35	=35
2B/	2D#X\	4b/	2f#\	.
.	.	4a/	.	.
(8B/L	4E\	4g/	4e\	.
8c#/J)	.	.	.	.
4d/	4Dn\	4b/	4f#\	.
=36	=36	=36	=36	=36
4e/	2C#\	(4a/	2e\	>
[4A/	.	4g/)	.	.
2A/]	2D\	2f#/	2d\	]]
=37	=37	=37	=37	=37
2d/	(4D\	(2a/	2f#\	fp
.	4C#\)	.	.	.
4d/	4BB\	4dd/	(8f#\L	.
.	.	.	8g#X\J)	.
4e/	4AA\	4cc#/	[4a\	.
=38	=38	=38	=38	=38
(4f#/	(4D\	2b/	4a\]	.
8e/L	4E\	.	4g#X\	.
8d/J	.	.	.	.
2c#/)	2F#\)	2a/)	2f#\	.
=39	=39	=39	=39	=39
2.B/	(4G\	(4b/	4d\	p <
.	4F#\	4a/	4d#X\	.
.	4E\	4g/	4e\	.
4d/	4BB\	4b/	4f#\	[
=40	=40	=40	=40	=40
1A/	2C#\	4a/	2e\	>
.	.	4g/	.	.
.	2D\)	2f#/)	2d\	]]
=41	=41	=41	=41	=41
!	!	!	!LO:TX:t=P:problem:pf się nie wyświetla	!
([2F#/	(4D\	(2a/	(2d\	pf
.	4Cn\	.	.	.
8F#/L]	4BB\	4b/	4d#X\	.
[8B/J	.	.	.	.
4B/]	8E\L	4g/	[4e\	.
.	8D\J	.	.	.
=42	=42	=42	=42	=42
!	!	!	!	!LO:DY:rj
4.A/	8C#X\L	2a/	8e\L]	pp
!	!	!	!LO:TX:b:i:t=rit.	!
.	8BB\J	.	8dn\J	>
.	4AA\	.	4c#\	.
8G/	.	.	.	.
2F#/)	2D;\)	2d;/)	2d\)	]]
*v	*v	*	*	*
*	*v	*v	*
!!LO:LB:g=original
=43||	=43||	=43||
!!!OMD:Variazioni.
*	*	*^
!	!LO:TX:a:B:t=I.	!	!LO:DY:b=2
!	!LO:TX:t=P:problem:pf się nie wyświetla	!	!
8r	(2a/	pf	pp
8D'\L	.	.	.
8F#'\	.	.	.
8G'\J	.	.	.
8A'\L	4a/	.	.
8F#'\	.	.	.
8E'\	4a/	.	.
8D'\J	.	.	.
*	*	*v	*v
=44	=44	=44
(8G\L	2b\	.
8A\)	.	.
8B'\	.	.
8c#'\J	.	.
8d'\L	2a/	.
8e'\	.	.
8f#'\	.	.
8d'\J	.	.
=45	=45	=45
(8g\L	4b\	<
8f#\)	.	.
8d#X'\	4a/	.
8f#'\J	.	.
8e'\L	4g/	.
8c#'\	.	.
8dn'\	4b\	[[
8B'\J	.	.
=46	=46	=46
(8c#\L	4a/	>
8A\)	.	.
8B'\	4g/	.
8c#'\J	.	.
8d'\L	8f#/L)	.
(8c#\	(>8e/	.
8d\	8f#/	]
8e\J)	8g/J)	.
=47	=47	=47
(8f#\L	(2a/	f
8g\)	.	.
8f#'\	.	.
8e'\J	.	.
8d'\L	4dd\	.
8f#'\	.	.
8a'\	4cc#\	.
8A'\J	.	.
!!LO:PB:g=original
=48	=48	=48
(8G\L	2b\	.
8A\)	.	.
8B'\	.	.
8c#'\J	.	.
8d'\L	2a/	.
8e'\	.	.
8f#'\	.	.
8d'\J	.	.
=49	=49	=49
(8d#X\L	4b\	p <
8B\)	.	.
8c#'\	4a/	.
8d#'\J	.	.
8e'\L	4g/	.
8dn'\	.	[
8c#'\	4b\	.
8B'\J	.	.
=50	=50	=50
(8A\L	4a/	>
8A#X\)	.	.
8B'\	4g/	.
8c#'\J	.	.
(8d\L	2f#/)	.
8e\)	.	.
8d'\	.	.
8c#'\J	.	]
=51	=51	=51
(8cn\L	(2a/	fp
8A\)	.	.
8G'\	.	.
8F#'\J	.	.
8G'\L	4b\	.
8D#X'\	.	.
8E'\	4g/	.
8Dn'\J	.	.
=52	=52	=52
(8C#/L	2a/	pp >
8AA/)	.	.
!LO:TX:b:i:t=rit.	!	!
8BB'/	.	.
8C#'/J	.	.
2D;</	2d;</)	]]
!!LO:LB:g=original
=|!53	=|!53	=|!53
*M4/4	*M4/4	*
*met(c)	*met(c)	*
!!!OMD:Larghetto.
*	*^	*
!	!LO:TX:b:B:t=II.	!	!
(4D\	(2a/	2f#\	pp
4A\	.	.	.
4d\	4a/	4f#\	.
4c#\	4a/	4e\	.
=54	=54	=54	=54
4B\	2b/	(8d\L	.
.	.	8c#\	.
4G\	.	8d\	.
.	.	8e\J)	.
4D\	2a/)	(4f#\	.
4C#/)	.	4e\)	.
=55	=55	=55	=55
(4BB/	(4.b^/	(4d#X\	.
8C#/L)	.	8e\L)	.
8D#X/J	8a/	8f#\J	.
4E\	4g/	[2e\	.
4Dn\	4b/	.	.
=56	=56	=56	=56
(4C#/	4a/	(8e\L]	.
.	.	8A\	.
8E/L	4g/	8B\	.
8AA#X/J	.	8c#\J	.
8BB/L	2f#/)	2d\)	.
8C#/	.	.	.
8D/	.	.	.
8E/J)	.	.	.
=57	=57	=57	=57
(4F#\	(2a/	(4d\	f
4G\	.	4e\)	.
4B\	4dd/	2f#\	.
4A\	4cc#/	.	.
=58	=58	=58	=58
8G\L	2b/	2g\	>
8A\	.	.	.
8B\	.	.	.
8c#\J	.	.	.
4d\	2a/)	(4f#\	.
4c#\)	.	4e\)	]]
=59	=59	=59	=59
!	!	!	!LO:DY:a
(4B\	(4.b/	(2d#X\	p
4BB/	.	.	.
.	8a/	.	.
4E\	4g/	[2e\	.
4D\	4b/	.	.
=60	=60	=60	=60
8C#/L	4.a/	8e\L]	.
8AA/	.	8c#\	.
8BB/	.	8d\	.
8C#/J	8g/	8e\J	.
8D/L	2f#/)	2d\)	.
8BB/	.	.	.
8AA/	.	.	.
8GG/J)	.	.	.
=61	=61	=61	=61
!	!	!	!LO:DY:a
4FF#/	(2a/	(1d\	pp <
4F#\	.	.	.
4G\	4b/	.	.
4E\	4g/	.	[[
=62	=62	=62	=62
!LO:TX:a:i:t=rit.	!	!	!
(8A\L	2a/	2c#\	>
8G\	.	.	.
8F#\	.	.	.
8E\J	.	.	.
2D;<\)	2d;/)	2d\)	]]
*	*v	*v	*
!!LO:LB:g=original
=|!63	=|!63	=|!63
*k[b-]	*k[b-]	*
*M4/4	*M4/4	*
*met(c)	*met(c)	*
!!!OMD:Grave.
*^	*^	*
!	!	!LO:TX:b:B:t=III.	!	!
4r	2D\	2a/	2f\	ff
4d/	.	.	.	.
4e/	4C#X\	4a/	4g\	.
4d/	4D\	4a/	4f\	.
=64	=64	=64	=64	=64
2d/	2G\	2b-/	(4g\	.
.	.	.	4f\)	.
2c#X/	2A\	2a/	2e\	.
=65	=65	=65	=65	=65
1r	(4G\	(4b-/	1d\	p
.	4A\	4a/	.	.
.	4B-\	4g/	.	.
.	4G\	4b-/	.	.
=66	=66	=66	=66	=66
1r	8A\L	4.a/	4c#X\	>
.	8AA\	.	.	.
.	8BBn\	.	8d\L	.
.	8C#X\J	8g/	8e\J	.
.	8D\L	4f/	4d\	.
.	8GG#X\)	.	.	.
.	(8AA\	4e/)	4c#\	.
.	8GGn\J)	.	.	.
=67	=67	=67	=67	=67
([2A/	(2FF\	(2a/	(8d\L	] f
.	.	.	8f\	.
.	.	.	8e\	.
.	.	.	8d\J)	.
8A/L]	2FF#X\	4.dd/	[2d\	.
8c/	.	.	.	.
8B-/	.	.	.	.
8A/J	.	8cc/	.	.
=68	=68	=68	=68	=68
2G/	8GG\L	2b-/	2.d\]	.
.	8AA\	.	.	.
.	8BB-\	.	.	.
.	8C\J	.	.	.
2F/)	4D\	2a/)	.	.
.	4C\)	.	4e-X\	.
=69	=69	=69	=69	=69
(2F/	(4BB-\	(4b-/	(4d\	p
.	2C\	4a/	2c\	.
4E/	.	4g/	.	.
8D/L	4GG\	4b-/	4d\	.
8E/J	.	.	.	.
=70	=70	=70	=70	=70
4F/	8AA\L	4a/	4.c\	.
.	8BB-\J	.	.	.
4E/	4C\	4g/	.	.
.	.	.	8B-\	.
2F/)	2D\)	2f/)	2A\)	.
=71	=71	=71	=71	=71
(4G/	(4E\	(2a/	(8Bn\L	pp
.	.	.	8c#X\J	.
4A/	4F\	.	[4d\	.
2G/	4G\	4b-/	2d\_	.
.	4BB-\	4g/	.	.
=72	=72	=72	=72	=72
8F/L	2AA\	2a/	4d\]	.
8G/	.	.	.	.
!LO:TX:b:i:t=rit.	!	!	!	!
8A/	.	.	4c#X\	.
8G/J	.	.	.	.
2F#X/)	2DD;\)	2d;/)	2d\)	.
*v	*v	*	*	*
*	*v	*v	*
!!LO:LB:g=original
=|!73	=|!73	=|!73
*k[f#c#]	*k[f#c#]	*
*M2/2	*M2/2	*
*met(c|)	*met(c|)	*
!!!OMD:Tempo I.
*	*	*^
!LO:TX:b:i:t=Ped.	!LO:TX:b:B:t=IV.	!	!
!	!	!LO:DY:b=2:rj	!
2D/ 2DD/	4r	ff	ff
.	4a/ 4f#/ 4d^/	.	.
4C#X/ 4CC#X/	4a/ 4g/ 4e^/	.	.
4D/ 4DD/	4a/ 4f#/ 4d^/	.	.
*	*	*v	*v
=74	=74	=74
*	*^	*
(8GG/L	2b/	2g\ 2d\	>
8AA/	.	.	.
8BB/	.	.	.
8C#/J	.	.	.
8D\L	2a/	2f#\ 2d\	.
8E\	.	.	.
8F#\	.	.	.
8D\J)	.	.	.
=75	=75	=75	=75
*^	*	*	*
1B/	(8D#X\L	(4.b/	(8f#\L	] p
.	8BB\	.	8d#X\	.
.	8C#\	.	8e\	.
.	8D#\J	8a/	8f#\J	.
.	4E\	8g/L	[2e\)	.
.	.	8f#/	.	.
.	4Dn\)	8g/	.	.
.	.	8b/J)	.	.
=76	=76	=76	=76	=76
[2A/	(8C#\L	(4.a/	(8e\L]	.
.	8AA\	.	8c#\	.
.	8BB\	.	8d\	.
.	8C#\J	8g/	8e\J	.
8A/]	8D\)	8f#/L	8d\)	.
8rAA	8rB	8e/	8r	.
4rAA	4rB	8f#/	4r	.
.	.	8g/J)	.	.
=77	=77	=77	=77	=77
2.d/	4r	2a/	2.f#\	f
.	(8D\L	.	.	.
.	8C#\J	.	.	.
.	8BB\L	4dd/	.	.
.	8AA\	.	.	.
4f#/	8GG\	4cc#/	4a\	.
.	8FF#\J	.	.	.
=78	=78	=78	=78	=78
1ryy	8GG\L	2b/	2g\ 2d\	.
.	8AA\	.	.	.
.	8BB\	.	.	.
.	8C#\J	.	.	.
.	4D\	2a/	2f#\ 2d\	.
.	4Cn\)	.	.	.
=79	=79	=79	=79	=79
4ryy	(<4BB\	(4.b/	2f#\ 2d#X\	.
4ryy	4B\	.	.	.
.	.	8a/	.	.
4ryy	8E\L	4g/	4e\ 4B\	.
.	8D\	.	.	.
4e/	8C#X\	4b/	4g\	.
.	8BB\J	.	.	.
=80	=80	=80	=80	=80
(4c#/	8AA\L	4a/	(4g\	.
.	8AA#X\	.	.	.
8B/L	8BB\	4g/	8d\L	<
8A/J	8C#\J	.	8e\J	.
4A/)	4D\	4f#/	4d\	.
4G/	4E\)	4a/)	4c#\)	[[
=81	=81	=81	=81	=81
4A/	(4F#\	(2a/	2d\	p
[4F#/	8D\L	.	.	.
.	8Cn\J	.	.	.
4F#/]	4BB\	4b/	4d#X\	.
4G/	4EE\	4g/	4B\	.
=82	=82	=82	=82	=82
(8E/L	2AA\	2a/	2c#\	pp >
!LO:TX:a:t=rit.	!	!	!	!
8F#/	.	.	.	.
8G/	.	.	.	.
8A/J	.	.	.	.
2F#/)	2D;\)	2d;/)	2dn\	]]
*v	*v	*	*	*
*	*v	*v	*
!!LO:PB:g=original
=|!83	=|!83	=|!83
*M4/4	*M4/4	*
*met(c)	*met(c)	*
!!!OMD:Allegro moderato.
*^	*^	*
!	!	!LO:TX:b:B:t=V.	!	!LO:DY:b=2
1r	8r	1rg	1r	fp
.	(8AA\L	.	.	.
.	8AA\	.	.	.
.	8AA\J	.	.	.
.	4BB\	.	.	.
.	4AA\	.	.	.
=84	=84	=84	=84	=84
1r	8BB\L	1rg	1r	.
.	8AA\	.	.	.
.	8GG\	.	.	.
.	8BB\J	.	.	.
.	8AA\L	.	.	.
.	8GG\	.	.	.
.	8FF#\	.	.	.
.	8EE\J)	.	.	.
=85	=85	=85	=85	=85
8r	4DD\	1rg	1r	.
(8A/L	.	.	.	.
8A/	4FF#\	.	.	.
8A/J	.	.	.	.
4B/	4GG\	.	.	.
4A/	4FF#\	.	.	.
=86	=86	=86	=86	=86
8B/L	8GG\L	1rg	1r	.
8A/	8AA\J	.	.	.
8G/	4BB\	.	.	.
8B/J	.	.	.	.
8A/L	4C#X\	.	.	.
8G/J	.	.	.	.
4F#/)	8D\L	.	.	.
.	8Cn\J	.	.	.
=87	=87	=87	=87	=87
[1G/	2BB\	1rgg	8r	.
.	.	.	(8d\L	.
.	.	.	8d\	.
.	.	.	8d\J	.
.	4Cn\	.	4e\	.
.	4BB\	.	4d\	.
=88	=88	=88	=88	=88
(2G/]	8Cn\L	1rgg	8e\L	.
.	8BB\	.	8d\	.
.	8AA\	.	8cn\	.
.	8C\J	.	8e\J	.
4F#/	4D\	.	8d\L	.
.	.	.	8c\	.
4G/	8E\L	.	8B\	.
.	8AA\J	.	8c#X\J)	.
=89	=89	=89	=89	=89
!	!	!	!	!LO:DY:a
2F#/	[1D\	8r	([1d\	p
.	.	(8a/L	.	.
.	.	8a/	.	.
.	.	8a/J	.	.
!	!	!	!	!LO:HP:a
4G/	.	4b/	.	>
4F#/	.	4a/	.	.
=90	=90	=90	=90	=90
8G/L	2D\]	8b/L	2d\]	.
8F#/	.	8a/	.	.
8E/	.	8g/	.	.
8G/J)	.	8b/J	.	.
[2A/	4C#\	8a/L	4e\	.
.	.	8g/	.	.
.	8D\L	8f#/	8d\L	.
.	8E\J	8g/J)	8c#\J)	.
=91	=91	=91	=91	=91
8AZ/]	8F#\	8a/	8d\	.
(8A/L	8r	8rb	8rc	]
8d/	4r	4rb	4rc	.
8c#/J	.	.	.	.
4.B/	2r	2rb	8rc	.
!	!	!	!	!LO:DY:a
.	.	.	(8d\L	fp
.	.	.	8g\	.
8A/)	.	.	8f#\J	.
!!LO:LB:g=original
=92	=92	=92	=92	=92
(4G/	1r	8r	[2e\)	.
!	!	!	!	!LO:DY:a
.	.	(8b/L	.	fp
4G#X/	.	8ee/	.	.
.	.	8dd/J	.	.
2A/	.	8cc#/L	8e\L]	.
.	.	8b/	8gn\	.
.	.	8a/	8f#\	.
.	.	8g/J)	8e\J	.
=93	=93	=93	=93	=93
!	!	!	!	!LO:DY:b=2
4.A/	8r	(2.f#/	(4.d\	f
!LO:TX:b:i:t=Ped.	!	!	!	!
.	(8AA\L	.	.	.
.	8D\	.	.	.
!	!	!	!	!LO:HP:a
8A#X/)	8C#\J	.	8e\	<
(2B/	8BB\L	.	[2d\)	.
.	8AA\	.	.	.
.	8GG\	4e/	.	.
.	8GG#X\J	.	.	.
=94	=94	=94	=94	=94
8A/L	1AA\)	2f#/	2d\_	[ pp
8F#/	.	.	.	.
8G/	.	.	.	.
!	!	!	!	!LO:HP:a
8G#X/J	.	.	.	>
4A/	.	4.e^>/	8d\L]	.
.	.	.	8B\J	.
4Gn/)	.	.	4c#\	.
.	.	8f#/)	.	.
=95	=95	=95	=95	=95
(4F#/	(4D\	8d/L	4d\	]
!	!	!	!	!LO:DY:a
.	.	8a^/	.	fp
8G/L	8E\L	8a^/	8c#\L	.
8A/J	8F#\J	8a^/J	[8d\J	.
4G/	4G\	4b~/	4d\]	.
4B/)	8E\L	4g~/	([4e\	.
.	8D\J)	.	.	.
=96	=96	=96	=96	=96
*	*	*	*	*^
!	!	!	!	!LO:HP:a	!
!	!	!	!	!LO:DY:a	!
[2A/	(8C#\L	(2a/	8e\L]	p >	.
.	8BB\	.	8d\J	.	.
.	8AA\	.	4c#\	.	.
.	8GG\J	.	.	.	.
8A/]	8FF#\L)	8d/)	8d\)	.	.
!	!	!	!	!	!LO:DY:b=2
8r	8AA'\	8r	8ryy	.	pp
4r	8AA'\	4r	4ryy	.	.
.	8AA'\J	.	.	]	.
*	*	*	*	*v	*v
=97	=97	=97	=97	=97
1r	(4BB\	1rg	1r	.
.	4GG\	.	.	.
.	2AA\	.	.	.
*	*	*v	*v	*
=98	=98	=98	=98
*	*	*	*^
*	*	*	*	*^
!	!	!	!LO:DY:b=2	!	!LO:HP:a
8r	[1DD\)	[1d/	ppp	ppp	<
(8A/L 8F#/	.	.	.	.	.
8A/ 8F#/	.	.	.	.	.
8A/J 8F#/	.	.	.	.	.
4B/ 4G/	.	.	.	.	.
4G/ 4E/	.	.	.	.	[[
*	*	*	*	*v	*v
*	*	*	*v	*v
=99	=99	=99	=99
!	!	!	!LO:HP:a
2A/ 2F#/	1DD\_	1d/_	>
2G/ 2E/	.	.	.
=100	=100	=100	=100
1F#/ 1D/;)	1DD\;_	1d/;]	]]
=101||	=101||	=101||	=101||
*	*	*^	*
!!!OMD:Adagio.
!LO:TX:b:i:t=senza Ped.	!	!	!	!
1rB	(>8DD\L]	1rg	1r	.
.	8EE\	.	.	.
.	8FF#\	.	.	.
.	8AA\J	.	.	.
.	8D\L	.	.	.
.	8E\	.	.	.
.	8F#\	.	.	.
.	8A\J)	.	.	.
=102	=102	=102	=102	=102
N(>8d/L	1r	2ryy	1rg	.
8e/	.	.	.	.
8f#/	.	.	.	.
8a/J	.	.	.	.
2ryy	.	8dd/L	.	.
.	.	8ee/	.	.
.	.	8ff#/	.	.
.	.	[8aa/JN)	.	.
*v	*v	*	*	*
*	*v	*v	*
!!LO:LB:g=original
=103||	=103||	=103||
*M4/4	*M4/4	*
*met(c)	*met(c)	*
!!!OMD:Adagio.
*	*^	*
!	!LO:TX:b:B:t=Coda.	!	!
1r	1aa/]	4r	ppp <
.	.	4gg\ 4ee\	.
.	.	4ff#\ 4dd\	.
.	.	4ee\ 4cc#\	[[
*clefG2	*	*	*
=104	=104	=104	=104
*^	*	*	*
2dd/	(2b\	2bb/	2ff#\	>
2cc#/	2f#\	2aa/	2ff#\	]]
=105	=105	=105	=105	=105
[2b/	4g\	(4bb/	4dd\	.
.	4d#X\	4aa/	4ff#\	.
2b/]	4e\	4gg/	[2ee\	.
.	4dn\	4bb/	.	.
=106	=106	=106	=106	=106
(4a/	2c#\	2aa/	2ee\]	.
4g/	.	.	.	.
2f#/)	2d\)	2dd/)	2dd\	.
=107	=107	=107	=107	=107
!	!	!	!	!LO:HP:a
(4g/	2r	(2.b/	(4b\	pp <
4f#/	.	.	4a\	.
4e/	4r	.	4g\	.
[4g/	(4c#\	4ee/	4a\	[[
=108	=108	=108	=108	=108
!	!	!	!	!LO:HP:a
4g/]	1d\)	1a/)	1a\)	>
8f#/L	.	.	.	.
8e/J	.	.	.	.
2f#/)	.	.	.	]]
*v	*v	*	*	*
*	*v	*v	*
*clefF4	*	*
=109	=109	=109
*^	*	*
*	*^	*	*
*	*	*	*	*^
!	!	!	!	!	!LO:HP:a
4B/ 4G/	2r	2ryy	2.B/	.	>
4A/ 4F#/	.	.	.	.	.
!LO:TX:b:i:t=Ped.	!	!	!	!LO:DY:b=2	!
4G/	[2G\	4E\	.	pp	.
[4A/	.	4AA\	4c#/	.	.
=110	=110	=110	=110	=110	=110
1A/] 1D/	4G/]	1DD/;<	1d/;	.	]
.	8F#/L	.	.	.	.
.	8E/J	.	.	.	.
.	2F#;>/	.	.	.	.
*	*	*	*	*v	*v
*v	*v	*v	*	*
!!LO:LB:g=original
=111	=111	=111
[1D/ [1DD/	2A</ 2F#</	pp <
.	4A</ 4F#</	.
.	4A</ 4F#</	[[
=112	=112	=112
1D/] 1DD/]	2B-X</ 2G</	>
.	2A</ 2F#</	]]
=113	=113	=113
*^	*^	*
*	*	*	*	*above
[2D/	(2FF#\	2d/	(4A\	f <
.	.	.	4A#X\	.
4D/]	4GG\	4d/	4B\	.
[4A/	4AA\	4e/	4c#\)	[
=114	=114	=114	=114	=114
(2A/]	4D\	2f#/	[1d\	.
.	4Cn\	.	.	.
!	!	!	!	!LO:DY:a
4G/	4BB\	4g/	.	<
4Fn/	4BB-X\	4g#X/	.	.
=115	=115	=115	=115	=115
!LO:TX:b:i:t=string.	!	!	!	!
2F#X/	1AA\	4a/	2.d\]	.
.	.	4a#X/	.	.
4G/	.	4b/	.	.
4A/	.	4cc#/	4g\	.
=116	=116	=116	=116	=116
!	!	!	!	!LO:DY:b
4A/	1D\	2.dd/	2f#\	[ ff
4A#X/	.	.	.	.
4B/	.	.	2g\	.
4c#/)	.	4ee/ 4b-X/	.	.
=117	=117	=117	=117	=117
!LO:TX:b:i:t=rall.	!	!	!	!LO:DY:a
4d^/	4D\	[1ff#/	[1a\ [1f#\	<
4B^/	4BB\	.	.	.
4An^/	4AAn\	.	.	.
4F#^/	4FF#\	.	.	.
=118	=118	=118	=118	=118
1D/	1DD\;)	1ff#/;]	1a\] 1f#\]	[
*v	*v	*	*	*
*	*v	*v	*
==	==	==
*-	*-	*-
!!!system-decoration: {(s1,s2)}
!!!RDF**kern: Z = caesura
!!!EED: Andrzej Borzym
!!!EST: 2021-08-09
!!!RDF**kern: > = above
!!!RDF**kern: < = below
!!!ENC: Krzysztof Stępień
!!!END: 2021-07-27
